X: 3
T: The Stack Of Rye
R: hornpipe
M: 4/4
L: 1/8
K: Ador
|: A>B |c>ee>d B>dd>B | A>BA>G (3EGE D2 | G>A (3Bcd d>Be>B | d>BG>B A2 (3GAB |
c2 e>d B2 d>B | A>BA>G E2 e>d | B2 (3cBA G>AB>G | A2 A>^G A2 :|
|: (3Bcd |e>aa>^g (3aba =g>a | (3bag a>f g>ed>g | e>gg>f g2 g>a | g>ed>B G3 B |
c>de>d B>d-d>B | A>BA>G E2 e>d | B2 B>A G>A (3BAG | A2 A>^G A2 :|


Tune 2307	Setting 15679

